X: 1
T: Melin's Rant
C: Troy MacGillivray
R: jig
S: image from Jen Schoonover 2017-4-26
Z: 2017 John Chambers <jc:trillian.mit.edu>
M: 6/8
L: 1/8
K: D
"A"|:\
"G"BdB "D"Ade | faf egf | "G"dBd "D"Aag | fed "A"A2d |\
"G"BdB "D"Age | fed "A"cBA | "Em"efe egf | "A"eag "D/f#"fdc :|
"B"|:\
"Em"Beg "D"a2f | "G"gfd "A"dcA | "Em"Beg "D/f#"faf | "A"efe ecA |\
"Em"gfg "D"faf | "A7"ceg "D"gfd | "A"edc cBA | "G"Bde "A"c2A :|
"C"|:\
"A"ABA Aga | Aaf efg | aAa "G"gag | "D/f#"gfd "Em"e2A |\
"A"efg "D"afd | "A"ced cBA | "G"gag "D/f#"faf | "Em"gde "A"cBA :|
